X: 08115
T: TOO DAMN EARLY
C: Bob McQuillen 18 Jan 91
B: Bob's Note Book 8 #115
%R: reel
Z: 2021 John Chambers <jc:trillian.mit.edu>
M: C
L: 1/8
K: G
DE \
| G2BG AGED | GABG c2Bc | d2Bd edBG | BdBG AGED |\
| G2BG AGED | GABG cBAB | GBdg fedc | B2G2 G2 :|
|: BA \
| G2Bd c2de | dBGB AGED | G2Bd c2de | dgfg a2ga |\
| bgag edBd | egdB AGBd | g2ge dBGA | B2G2 G2 :|
%%begintext align
%% This little ditty is
%% to celebrate the fact that I don't know how to set
%% an alarm clock, which probably explains why Ted
%% Sanella woke up at 5:30 instead of 6:30 on morning
%% at the Ralph Page Legacy Weekend. We're still friends,
%% though, which says quite a lot for Ted!
%%endtext

%%sep 1 1 500

%%sep 1 1 500

